svgs/solid/planet-moon.svg

<svg xmlns="http://www.w3.org/2000/svg" viewBox="0 0 576 512"><!-- Font Awesome Pro 5.15.3 by @fontawesome - https://fontawesome.com License - https://fontawesome.com/license (Commercial License) --><path d="M512,0a64,64,0,1,0,64,64A63.99942,63.99942,0,0,0,512,0ZM224,64C100.28711,64,0,164.28516,0,288,0,411.71289,100.28711,512,224,512S448,411.71289,448,288C448,164.28516,347.71289,64,224,64Zm96,272.89062a64.02377,64.02377,0,0,1-6.75781,28.627L272.918,446.166a28.68332,28.68332,0,0,1-20.89258,15.45312q-5.16211.86719-10.41992,1.43359a16.03421,16.03421,0,0,1-17.60742-15.98437C223.99609,423.58984,223.99414,384,224,384a32.00033,32.00033,0,0,1-32-32V320l-54.62695-54.62891A32.00483,32.00483,0,0,0,114.74609,256l-25.02539-.00195c-20.74414,0-34.53125-21.54493-25.96875-40.43946C91.39258,154.55469,152.7793,112,224,112q2.25586,0,4.49805.0625A28.487,28.487,0,0,1,256,140.62109,64.00066,64.00066,0,0,1,245.25,176.125l-49.72852,57.35742a32.00106,32.00106,0,0,0,1.55079,43.58985A37.31367,37.31367,0,0,0,223.45312,288H288a31.99908,31.99908,0,0,1,32,32Z"/></svg>

<svg xmlns="http://www.w3.org/2000/svg" viewBox="0 0 576 512"><!--! Font Awesome Pro 6.0.0 by @fontawesome - https://fontawesome.com License - https://fontawesome.com/license (Commercial License) Copyright 2022 Fonticons, Inc. --><path d="M512 0c-35.38 0-64 28.62-64 64s28.62 63.1 64 63.1s64-28.62 64-63.1S547.4 0 512 0zM224 64C100.2 64 0 164.2 0 288s100.2 224 224 224s224-100.2 224-224S347.8 64 224 64zM320 336.9c0 10-2.375 19.75-6.75 28.62l-40.38 80.63c-4 8.25-11.88 14-20.88 15.5c-3.375 .625-6.875 1-10.38 1.375c-4.5 .5-9-.9995-12.38-4C225.9 455.9 224 451.6 224 447.1V384c-17.62 0-32-14.38-32-32v-32L137.4 265.4C131.4 259.4 123.2 256 114.8 256H89.75C68.1 256 55.25 234.5 63.75 215.5C91.38 154.5 152.8 112 224 112h4.5C243.9 112.6 256 125.2 256 140.6C256 153.2 252.3 165.6 245.3 176.1L195.5 233.5c-11 12.62-10.25 31.75 1.625 43.63C204.1 284.1 213.5 288 223.5 288H288c17.62 0 32 14.38 32 32V336.9z"/></svg>
